**kern	**kern	**kern	**kern
*staff3	*staff4	*staff1	*staff2
*clefF4	*clefF4	*clefG2	*clefG2
*k[f#c#]	*k[f#c#]	*k[f#c#]	*k[f#c#]
*M2/4	*M2/4	*M2/4	*M2/4
*D:	*D:	*D:	*D:
=-	=-	=-	=-
2r	8D	8a 8ff#	2r
.	8r	8r	.
.	8AA	8g 8ee	.
.	8r	8r	.
=1	=1	=1	=1
2r	4BB	4f# 4dd	2r
.	4r	8.r	.
.	.	16cc#	.
=2	=2	=2	=2
2r	8GG	8g 8b	2r
.	8r	8r	.
.	8BB	8g 8b	.
.	8r	8r	.
=3	=3	=3	=3
2r	8D	8f# 8a	2r
.	8r	8r	.
.	4r	4r	.
=4	=4	=4	=4
2r	8D 8A	8d 8f#	2r
.	8r	8r	.
.	(4D [4A	(4d 4f#	.
=5	=5	=5	=5
2r	8C#) 8A]	8e) 8g	2r
.	8r	8r	.
.	(4C# [4A	(4e 4g	.
=6	=6	=6	=6
2r	8D) 8A]	8d) 8f#	2r
.	8r	8r	.
.	4D 4A	4d 4f#	.
=7	=7	=7	=7
2r	4AA 4A	4c# 4e	2r
.	4r	4r	.
=8:|!|:	=8:|!|:	=8:|!|:	=8:|!|:
*-	*-	*-	*-
